src/assets/information-question-icon.svg

<svg fill="none" height="17" viewBox="0 0 17 17" width="17" xmlns="http://www.w3.org/2000/svg"><circle cx="8.5" cy="8.5" fill="#d9d9d9" r="8.5"/><path d="m8.276 4.96c.528 0 .988.084 1.38.252s.696.408.912.72c.224.312.336.684.336 1.116 0 .464-.104.852-.312 1.164-.2.304-.472.536-.816.696-.336.16-.712.264-1.128.312v1.284h-.996v-1.8c.584-.088 1.036-.196 1.356-.324.328-.128.556-.288.684-.48.136-.192.204-.428.204-.708s-.064-.52-.192-.72c-.12-.2-.304-.352-.552-.456s-.564-.156-.948-.156c-.528 0-.96.148-1.296.444-.328.288-.524.684-.588 1.188l-.852-.492c.088-.408.256-.764.504-1.068.256-.312.576-.552.96-.72.392-.168.84-.252 1.344-.252zm-.144 6.6c.232 0 .42.072.564.216s.216.332.216.564-.072.42-.216.564-.332.216-.564.216-.42-.072-.564-.216-.216-.332-.216-.564.072-.42.216-.564.332-.216.564-.216z" fill="#000"/></svg>

<svg width="17" height="17" viewBox="0 0 17 17" fill="none" xmlns="http://www.w3.org/2000/svg">
<circle cx="8.5" cy="8.5" r="8.5" fill="#D9D9D9"/>
<path d="M8.276 4.96C8.804 4.96 9.264 5.044 9.656 5.212C10.048 5.38 10.352 5.62 10.568 5.932C10.792 6.244 10.904 6.616 10.904 7.048C10.904 7.512 10.8 7.9 10.592 8.212C10.392 8.516 10.12 8.748 9.776 8.908C9.44 9.068 9.064 9.172 8.648 9.22V10.504H7.652V8.704C8.236 8.616 8.688 8.508 9.008 8.38C9.336 8.252 9.564 8.092 9.692 7.9C9.828 7.708 9.896 7.472 9.896 7.192C9.896 6.912 9.832 6.672 9.704 6.472C9.584 6.272 9.4 6.12 9.152 6.016C8.904 5.912 8.588 5.86 8.204 5.86C7.676 5.86 7.244 6.008 6.908 6.304C6.58 6.592 6.384 6.988 6.32 7.492L5.468 7C5.556 6.592 5.724 6.236 5.972 5.932C6.228 5.62 6.548 5.38 6.932 5.212C7.324 5.044 7.772 4.96 8.276 4.96ZM8.132 11.56C8.364 11.56 8.552 11.632 8.696 11.776C8.84 11.92 8.912 12.108 8.912 12.34C8.912 12.572 8.84 12.76 8.696 12.904C8.552 13.048 8.364 13.12 8.132 13.12C7.9 13.12 7.712 13.048 7.568 12.904C7.424 12.76 7.352 12.572 7.352 12.34C7.352 12.108 7.424 11.92 7.568 11.776C7.712 11.632 7.9 11.56 8.132 11.56Z" fill="black"/>
</svg>
